X:1
T:Title
L:1/8
Q:1/4=100
M:6/8
K:F
V:1 treble nm="Grand Piano"
V:1
 C2 F E^C=C | E2 F G2 G | G2 B _AGF | E2 F G2 F | c2 c _AGF | ^c2 c B_AG | B2 A B2 G | _A2 B c3 | %8
w: ????~???? * * * *||||||||
 c6 | cBA B_AG | FEF G3 | F6 |] %12
w: ||||

